packages/kaspersky-hexa-ui-icons/src/iconsSVGs/16/Calls.svg

<svg width="16" height="16" viewBox="0 0 16 16" fill="none" xmlns="http://www.w3.org/2000/svg">
<path fill-rule="evenodd" clip-rule="evenodd" d="M2.01859 2.63767C2.03407 2.29028 2.32021 2.0166 2.66795 2.0166H4.55388C5.31101 2.0166 5.97098 2.53189 6.15461 3.26642L6.49368 4.62267C6.63506 5.18819 6.46755 5.78634 6.05303 6.19619L4.79408 7.44093C5.21655 8.12759 5.76036 8.8397 6.46093 9.54026C7.14767 10.227 7.8643 10.7638 8.56519 11.1834L9.80801 9.94062C10.2178 9.53079 10.8126 9.36604 11.3749 9.50661L12.7348 9.84659C13.4694 10.0302 13.9847 10.6902 13.9846 11.4473L13.9846 13.3332C13.9846 13.6922 13.6936 13.9832 13.3346 13.9832V13.3332C13.3346 13.9832 13.3346 13.9832 13.3346 13.9832L13.3318 13.9832L13.3274 13.9832L13.3144 13.983C13.3038 13.9829 13.2894 13.9826 13.2713 13.9821C13.2351 13.9812 13.1842 13.9793 13.1198 13.9757C12.9909 13.9684 12.8075 13.9542 12.5789 13.9263C12.122 13.8706 11.4822 13.76 10.7346 13.5401C10.0497 13.3387 9.27211 13.0448 8.46119 12.6162C8.39202 12.5931 8.32597 12.558 8.26626 12.5109C7.36623 12.0141 6.43143 11.3492 5.5417 10.4595C4.60603 9.52385 3.91678 8.56297 3.40995 7.64827C2.66671 6.30691 2.31854 5.07006 2.15633 4.16317C2.0752 3.70956 2.0404 3.33746 2.02604 3.07449C2.01886 2.94295 2.01679 2.83852 2.01661 2.76463C2.01653 2.72767 2.01691 2.69834 2.01738 2.67704L2.01808 2.65117L2.01837 2.64286L2.01849 2.63987L2.01859 2.63767C2.01859 2.63767 2.01859 2.63767 2.66795 2.6666L2.01859 2.63767ZM3.34882 3.3166C3.36663 3.49177 3.39403 3.69948 3.43602 3.93428C3.54639 4.55135 3.75709 5.35294 4.15775 6.24195L5.13902 5.27175C5.22695 5.18481 5.26248 5.05793 5.23249 4.93797L4.89343 3.58171C4.85447 3.4259 4.71448 3.3166 4.55388 3.3166H3.34882ZM9.77758 11.8095C10.245 12.015 10.6916 12.1724 11.1014 12.2929C11.742 12.4813 12.2904 12.579 12.6846 12.6294L12.6846 11.4473C12.6846 11.2867 12.5753 11.1467 12.4195 11.1078L11.0596 10.7678C10.9403 10.738 10.8142 10.7729 10.7272 10.8599L9.77758 11.8095Z" fill="black"/>
</svg>

<svg xmlns="http://www.w3.org/2000/svg" width="16" height="16" fill="none" viewBox="0 0 16 16"><path fill="#000" fill-rule="evenodd" d="M2.0186 2.6377a.65.65 0 0 1 .6493-.6211h1.886a1.65 1.65 0 0 1 1.6007 1.2498l.339 1.3563a1.65 1.65 0 0 1-.4406 1.5735L4.794 7.4409c.4226.6867.9664 1.3988 1.667 2.0994a10.86 10.86 0 0 0 2.1042 1.6431L9.808 9.9406a1.65 1.65 0 0 1 1.5669-.434l1.3599.34a1.65 1.65 0 0 1 1.2498 1.6007v1.8859a.65.65 0 0 1-.65.65v-.65.65h-.0072l-.013-.0002-.0431-.0009a5 5 0 0 1-.1515-.0064 8.4 8.4 0 0 1-.5409-.0494c-.4569-.0557-1.0967-.1663-1.8443-.3862a12.3 12.3 0 0 1-2.2734-.9239.64.64 0 0 1-.195-.1053 12.14 12.14 0 0 1-2.7245-2.0514C4.606 9.5238 3.9167 8.563 3.41 7.6483 2.6666 6.3069 2.3185 5.07 2.1563 4.1632c-.0811-.4536-.1159-.8257-.1303-1.0887a6 6 0 0 1-.0094-.3099q0-.0556.0008-.0876l.0007-.0258.0003-.0083v-.003zl.6493.0289zm1.3302.6789a8.3 8.3 0 0 0 .0872.6177c.1104.617.321 1.4186.7218 2.3077l.9812-.9702a.35.35 0 0 0 .0935-.3338l-.339-1.3563a.35.35 0 0 0-.3396-.2651zm6.4288 8.4929c.4674.2055.914.3629 1.3238.4834.6406.1884 1.189.2861 1.5832.3365v-1.1821a.35.35 0 0 0-.2651-.3395l-1.3599-.34a.35.35 0 0 0-.3324.0921z"/></svg>
